X:1
T:Pas d'Action
T:Pas d'Action
T:Swan Lake, Piano Arrangement for 3 hands
T:Hinci
C:Hinci
%%score { ( 1 6 ) | ( 2 3 ) | ( 4 5 ) }
L:1/8
Q:1/4=120
M:4/4
K:E
V:1 treble nm="Piano" snm="Pno."
V:6 treble 
V:2 bass 
V:3 bass 
V:4 bass 
V:5 bass 
V:1
"^Andantino quasi moderato." z4!p! .[EB] z z2 | z4 .[FB] z z2 | z4!<(! .[B,E] z z2 | %3
 .^E z z2!<)!!mp! .[CF] z z2 | z4 .F z z2 | z4 .[EG] z z2 | .[FA] z z2 .[FB] z .[DF] z | %7
 .[EG] z z2 .[EG] z z2 | z8 | (!>!B4 c3 d) | (fedf e4) |!<(! (^e4 f3 g) | (baga) (bagf!<)! | %13
!mf! e) z z2 (Bcde) | (f2 d2 c2 d2) | e8 | e'4 d'2 c'2 | (^b^aga b4) | e'4 d'2 c'2 | (^b^aga b4) | %20
 e'4 d'2 c'2 | (d'c'^bd' c'4) |!<(! (c'2 d'2 e'2 ^e'2)!<)! |!f!!>(! (g'2 f'2 c'2 b2)!>)! | %24
 z!p! (BbB) z (BbB) | z (BbB) z (BbB) | z (cc'c) z (cc'c) | (d'd)(^e'^e) (f'f) z2 | %28
 z ([F,C][CF][F,C]) z ([F,C][CF][F,C]) | z ([G,B,][B,E][G,B,]) z ([G,B,][B,E][G,B,]) | %30
 z ([A,B,][B,D][A,B,]) z ([F,A,][A,D][F,A,]) | z ([E,G,][G,E][E,G,]) z ([E,G,][G,E][E,G,]) | %32
 z!p! (BbB) z (BbB) | z (BbB) z (BbB) | z (cc'c) z (cc'c) | (d'd)(^e'^e) (f'f) z2 | %36
 z ([F,C][CF][F,C]) z ([F,C][CF][F,C]) | z ([G,B,][B,E][G,B,]) z ([G,B,][B,E][G,B,]) | %38
 z ([A,B,][B,D][A,B,]) z ([F,A,][A,D][F,A,]) | [B,C^E]2 z2 z4 | z8 |!mp! [fac']6 z2 | z8 | %43
!mp! [fac']6 z2 | z8 | z8 | (gfcf) (gfcf) | (gfcf) (gfcf) | %48
 (g/f/c/f/) (g/f/c/f/) (g/f/c/f/) (g/f/c/f/) |!<(! g/f/c/d/ ^e/f/g/a/ b/a/g/a/ b/c'/d'/^e'/!<)! | %50
!ff! [fc'f'] z !fermata!z2 z3!mf! (f ||[M:2/4]"^Allegro." g).f .c(f | g).e .B(e | %53
 g/).f/.e/.f/ .e/.d/.c/.B/ | .^A/.B/.c/.A/ .B/.c/.d/.e/ |"_accel." .g(f c).f | .g(e B).e | %57
[Q:1/4=124] g/f/e/d/[Q:1/4=128] c/B/c/d/ |[Q:1/4=132]!<(! e/f/g/a/ b/c'/d'/e'/!<)! | %59
!ff! g'f' c'f' | g'e' be' | g'/f'/e'/f'/ e'/d'/c'/b/ | ^a/b/c'/a/ b/c'/d'/e'/ | g'f' c'f' | %64
 g'e' be' |!>(! g'/f'/e'/d'/ c'/b/c'/!>)!!mf!d'/ |!ff! e/f/g/a/ b/a/g/b/ | a/g/f/g/ a/g/f/a/ | %68
 g/f/g/a/ b/a/g/b/ | a/g/f/g/ a/g/f/a/ | g/f/g/a/ b/a/g/b/ | a/g/f/g/ a/g/f/a/ | %72
 g/f/g/a/ b/a/g/b/ | a/g/f/g/ a/b/c'/d'/ | [egbe'][Ee]!f! E2 |] %75
V:2
!mp! (E,4 F,3 G,) | (A,G,F,^E, F,4) | (G,4!<(! A,3 B,) | (CB,A,G, A,2)!<)!!mf! (C2 | %4
 G2 F2 C2) (F2 | G2 E2 (3B,2) (G2 F2) | (EDGF) (EDCB,) | (3(^A,2 C2 B,2-) B,4 |!mp! (E,4 F,3 G,) | %9
 (A,G,F,^E, F,4) | (G,4!<(! A,3 B,) | (CB,A,G, A,2)!<)!!mf! (C2 | G2 F2 C2) (F2 | %13
 G2 E2 (3B,2) (G2 F2) | (EDGF) (EDCB,) | (3(^A,2 C2 B,2-) B,4 | %16
[K:treble]!p! (!/-![EG]2 [G,E]2) (!/-![EG]2 [G,E]2) | (!/-![DG]2 [G,D]2) (!/-![FG]2 [G,F]2) | %18
 (!/-![EG]2 [G,E]2) (!/-![EG]2 [G,E]2) | (!/-![DG]2 [G,D]2) (!/-![FG]2 [G,F]2) | %20
 (!/-![EG]2 [G,E]2) (!/-![EG]2 [G,E]2) | (!/-![^EG]2 [G,E]2) ([E^A][^A,E][EB][B,E]) | %22
 (!/-![CB]2 [B,C]2) (!/-![C^A]2 [^A,C]2) | (!/-![DA]2 [A,D]2) ([EA][A,E])([FA][A,F]) | %24
[K:treble]!mp! ([E,E]4 [F,F]3 [G,G]) | ([A,A][G,G][F,F][^E,^E] [F,F]4) | %26
 ([G,G]4!<(! [A,A]3 [B,B]) | ([Cc][B,B][A,A][G,G] [A,A]2)!<)!!mf! ([Cc]2 | %28
 [Gg]2 [Ff]2 [Cc]2) ([Ff]2 | [Gg]2 [Ee]2 (3[B,B]2) ([Gg]2 [Ff]2) | %30
 ([Ee][Dd][Gg][Ff]) ([Ee][Dd][Cc][B,B]) | (3([^A,^A]2 [Cc]2 [B,B]2-) [B,B]4 | %32
!mp! ([E,E]4 [F,F]3 [G,G]) | ([A,A][G,G][F,F][^E,^E] [F,F]4) | ([G,G]4!<(! [A,A]3 [B,B]) | %35
 ([Cc][B,B][A,A][G,G] [A,A]2)!<)!!mf! ([Cc]2 | [Gg]2 [Ff]2 [Cc]2) ([Ff]2 | %37
 [Gg]2 [Ee]2 (3[B,B]2) ([Gg]2 [Ff]2) | ([Ee][Dd][Gg][Ff]) ([Ee][Dd][Cc][B,B]) | %39
 (AG=dc) !fermata!c z!mp! ([Cc]2 | [Gg]2 [Ff]2) [Cc]4 | [FAc]6!mp! ([Cc]2 | [Gg]2 [Ff]2) [Cc]4 | %43
 [FAc]6 ([Cc]2 | [Gg]2 [Ff]2 [Cc]2) ([Ff]2 | [Gg]2 [Ff]2 [Cc]2)"_cresc." [Ff]2 | (GFCF) (GFCF) | %47
 (GFCF) (GFCF) |!mf! (G/F/C/F/) (G/F/C/F/) (G/F/C/F/) (G/F/C/F/) | %49
 G/F/C/D/ ^E/F/G/A/ B/A/G/A/ B/c/d/^e/ |[K:bass] [F,,C,F,A,] z !fermata!z2 z4 || %51
[M:2/4]!p! A,,[CEF] A,,[CEF] | B,,[B,EG] B,,[B,EG] | B,,[B,FA] B,,[B,FA] | E,[B,EG] E,[B,EG] | %55
 A,,[CEF] A,,[CEF] | B,,[B,EG] B,,[B,EG] |!mf! !arpeggio![B,,D,F,A,]4 | [E,B,G] z z2 | %59
!mf! A,,[E,F,CE] A,,[E,F,CE] | [B,,,B,,][G,B,E] [B,,,B,,][G,B,E] | %61
 [B,,,B,,][F,A,B,] [B,,,B,,][F,A,B,] | [E,,E,][E,G,B,] [E,,E,][E,G,B,] | A,,[E,F,CE] A,,[E,F,CE] | %64
 B,,[E,G,B,E] [B,,,B,,][E,G,B,E] | !arpeggio![B,,F,A,B,] z z2 | [E,,E,]2 [C,,C,]2 | %67
 [F,,F,]2 [B,,,B,,]2 | [E,,E,]2 [C,,C,]2 | [F,,F,]2 [B,,,B,,]2 | [E,,E,]2 [C,,C,]2 | %71
 [F,,F,]2 [B,,,B,,]2 | [E,,E,]2 [C,,C,]2 | [F,,F,]2 [B,,,B,,]2 | [E,,E,][E,,E,] [E,,E,]2 |] %75
V:3
 E,8 | D,8 | =D,8 | (C,4 F,,2) z2 | x8 | x8 | x8 | E,4- E,2 z2 | E,8 | D,8 | =D,8 | (C,4 F,4) | %12
 z8 | x8 | x8 | E,4- E,2 z2 |[K:treble] x8 | x8 | x8 | x8 | x8 | x8 | x8 | x8 |[K:treble] E,8 | %25
 x8 | x8 | x8 | x8 | x8 | x8 | E,4- E,2 z2 | E,8 | x8 | x8 | x8 | x8 | x8 | x8 | x8 | x8 | x8 | %42
 x8 | x8 | x8 | x8 | x8 | x8 | x8 | x8 |[K:bass] x8 ||[M:2/4] x4 | x4 | x4 | x4 | x4 | x4 | x4 | %58
 x4 | x4 | x4 | x4 | x4 | x4 | x4 | x4 | x4 | x4 | x4 | x4 | x4 | x4 | x4 | x4 | x4 |] %75
V:4
 z8 | z8 | z8 | z8 |!mf! A,,8 | B,,8 | =C,4 B,,4 | z8 |!mp! z8 | z8 | z8 | z8 |!mf! F,,6 A,,2 | %13
 B,,8- | B,,8 | z8 |!p! C,8 | !>!F4 !>!E2 !>!D2 | (!>!C!>!^B,!>!^A,!>!B, !>!C4) | %19
 !>!F4 !>!E2 !>!D2 | (!>!C!>!^B,!>!^A,!>!B, !>!C4) | !>!B,4 !>!^A,2 !>!=A,2 | %22
 (!>!G,!>!F,!>!^E,!>!G, !>!F,4) |!<(! (!>!B,,2 !>!B,2 !>!C2 !>!D2)!<)! | z8 | D,8 | =D,8 | %27
 (C,4 F,,2) z2 |!mf! A,,8 | B,,8 | =C,4 B,,4 | z8 | z8 | D,8 | =D,8 | (C,4 F,,2) z2 |!mf! A,,8 | %37
 B,,8 | =C,4 B,,4 | C,2 z2 z2 z2 |!p! [F,,A,,C,]8 | z6 z2 |!p! [F,,A,,C,]8 | z6 z2 | z8 | z8 | z8 | %47
 z8 | z8 | z8 | z2 !fermata!z2 z4 ||[M:2/4] z4 | z4 | z4 | z4 | z4 | z4 | z4 | %58
 z[K:treble]!<(! G/A/ B/c/d/e/!<)! |!ff! gf cf | ge Be | g/f/e/f/ e/d/c/B/ | ^A/B/c/A/ B/c/d/e/ | %63
 gf cf | ge Be | g/f/e/d/ c/B/c/d/ |!f! [EGB]2 [^EGc^e]2 | [FAcf]2 [FA^Bdf]2 | [EGBe]2 [^EGc^e]2 | %69
 [FAcf]2 [FABdf]2 | [EGBe]2 [^EGc^e]2 | [FAcf]2 [FABdf]2 | [EGBe]2 [^EGc^e]2 | [FAcf]2 [FABdf]2 | %74
 [EGB] z z2 |] %75
V:5
 x8 | x8 | x8 | x8 | x8 | x8 | x8 | E,,6 z2 | x8 | x8 | x8 | x8 | x8 | x8 | x8 | x8 | x8 | x8 | %18
 x8 | x8 | x8 | x8 | x8 | x8 | x8 | x8 | x8 | z2 !>!B,2 !>!A,2 z2 | x8 | x8 | x8 | E,,6 z2 | x8 | %33
 x8 | x8 | z2 !>!B,2 !>!A,2 z2 | x8 | x8 | x8 | x8 | x8 | x8 | x8 | x8 | x8 | x8 | x8 | x8 | x8 | %49
 x8 | x8 ||[M:2/4] x4 | x4 | x4 | x4 | x4 | x4 | x4 | x[K:treble] x3 | x4 | x4 | x4 | x4 | x4 | %64
 x4 | x4 | x4 | x4 | x4 | x4 | x4 | x4 | x4 | x4 | x4 |] %75
V:6
 x8 | x8 | x8 | x8 | x8 | x8 | x8 | x8 | x8 | x8 | x8 | x8 | x8 | x8 | [AB]8 | (^^F4 G4) | x8 | %17
 x8 | x8 | x8 | x8 | x8 | x8 | x8 | x8 | x8 | x8 | x8 | x8 | x8 | x8 | x8 | x8 | x8 | x8 | x8 | %36
 x8 | x8 | x8 | x8 | x8 | x8 | x8 | x8 | x8 | x8 | x8 | x8 | x8 | x8 | x8 ||[M:2/4] x4 | x4 | x4 | %54
 x4 | x4 | x4 | x4 | x4 | x4 | x4 | x4 | x4 | x4 | x4 | x4 | x4 | x4 | x4 | x4 | x4 | x4 | x4 | %73
 x4 | x4 |] %75

